public/images/icons/icon-watchlist.svg

<svg height="15" viewBox="0 0 17 15" width="17" xmlns="http://www.w3.org/2000/svg"><path d="m3 3v-3h1v3h3v1h-3v3h-1v-3h-3v-1zm4 3h10v1h-10zm-4 4h14v1h-14zm0 4h14v1h-14z" fill="#7c7c7c"/></svg>

<svg xmlns="http://www.w3.org/2000/svg" width="17" height="15" viewBox="0 0 17 15">
    <g fill="#7C7C7C" fill-rule="nonzero">
        <path d="M3 3V0h1v3h3v1H4v3H3V4H0V3h3zm4 3h10v1H7V6zM3 10h14v1H3zM3 14h14v1H3z"/>
    </g>
</svg>
